assets/assets/images/icons/icon-slack-white.svg

<svg width="25" height="25" xmlns="http://www.w3.org/2000/svg"><g fill="#FFF"><path d="M10.4073 11.3874l3.3187-1.1116 1.08 3.224-3.3189 1.1116z"/><path d="M10.4073 11.3874l3.3187-1.1116 1.08 3.224-3.3189 1.1116z"/><path d="M23.9 9C21.4.5 17.7-1.5 9.1 1.1.6 3.6-1.4 7.3 1.2 15.9c2.6 8.5 6.2 10.5 14.8 7.9 8.5-2.5 10.5-6.2 7.9-14.8zm-4.3 5.6l-1.6.5.6 1.7c.2.6-.2 1.4-.8 1.6-.2 0-.3.1-.5.1-.5-.1-1-.4-1.2-.9l-.5-1.7-3.3 1.1.5 1.7c.2.7-.1 1.4-.8 1.6-.1.1-.3.1-.4.1-.5 0-1-.4-1.2-.9l-.6-1.7-1.6.6c-.1 0-.3.1-.4 0-.5 0-1-.3-1.2-.8-.2-.7.1-1.4.8-1.7l1.6-.5-1.1-3.2-1.6.5c-.1.1-.3.1-.4.1-.5 0-1-.4-1.2-.9-.2-.6.1-1.4.8-1.6l1.6-.5-.5-1.7c-.3-.7.1-1.4.8-1.6.7-.2 1.4.1 1.6.8l.6 1.6 3.3-1.1-.6-1.6c-.2-.7.2-1.4.8-1.7.7-.2 1.4.2 1.7.9l.5 1.6 1.6-.5c.7-.2 1.4.1 1.7.8.2.7-.2 1.4-.9 1.6l-1.6.6 1.1 3.2 1.6-.6c.7-.2 1.4.2 1.6.8.3.7-.1 1.4-.8 1.7z"/></g></svg>

<svg width="25" height="25" viewBox="0 0 25 25" xmlns="http://www.w3.org/2000/svg"><title>Slack Logomark</title><g fill="none"><g fill="#FFF"><rect transform="translate(-215 -1)translate(215 1)translate(12.559175 12.45946)rotate(-18.518296)" x="-1.7" y="-1.7" width="3.5" height="3.4"/><rect transform="translate(-215 -1)translate(215 1)translate(12.559175 12.45946)rotate(-18.518296)" x="-1.7" y="-1.7" width="3.5" height="3.4"/><path d="M23.9 9C21.4 0.5 17.7-1.5 9.1 1.1 0.6 3.6-1.4 7.3 1.2 15.9 3.8 24.4 7.4 26.4 16 23.8 24.5 21.3 26.5 17.6 23.9 9ZM19.6 14.6L18 15.1 18.6 16.8C18.8 17.4 18.4 18.2 17.8 18.4 17.6 18.4 17.5 18.5 17.3 18.5 16.8 18.4 16.3 18.1 16.1 17.6L15.6 15.9 12.3 17 12.8 18.7C13 19.4 12.7 20.1 12 20.3 11.9 20.4 11.7 20.4 11.6 20.4 11.1 20.4 10.6 20 10.4 19.5L9.8 17.8 8.2 18.4C8.1 18.4 7.9 18.5 7.8 18.4 7.3 18.4 6.8 18.1 6.6 17.6 6.4 16.9 6.7 16.2 7.4 15.9L9 15.4 7.9 12.2 6.3 12.7C6.2 12.8 6 12.8 5.9 12.8 5.4 12.8 4.9 12.4 4.7 11.9 4.5 11.3 4.8 10.5 5.5 10.3L7.1 9.8 6.6 8.1C6.3 7.4 6.7 6.7 7.4 6.5 8.1 6.3 8.8 6.6 9 7.3L9.6 8.9 12.9 7.8 12.3 6.2C12.1 5.5 12.5 4.8 13.1 4.5 13.8 4.3 14.5 4.7 14.8 5.4L15.3 7 16.9 6.5C17.6 6.3 18.3 6.6 18.6 7.3 18.8 8 18.4 8.7 17.7 8.9L16.1 9.5 17.2 12.7 18.8 12.1C19.5 11.9 20.2 12.3 20.4 12.9 20.7 13.6 20.3 14.3 19.6 14.6Z"/></g></g></svg>
